img/svg/mail.svg

<svg width="16" height="13" viewBox="0 0 16 13" fill="none" xmlns="http://www.w3.org/2000/svg">
<path d="M1.53568 3.87498C1.73808 4.0178 2.34818 4.44199 3.36601 5.14731C4.38388 5.85264 5.16364 6.39572 5.70531 6.77659C5.76482 6.81834 5.89126 6.90909 6.08468 7.04898C6.27814 7.18895 6.43888 7.30207 6.56678 7.38835C6.69478 7.4746 6.84952 7.57136 7.03115 7.67847C7.21272 7.78548 7.38388 7.86598 7.54459 7.91927C7.70533 7.973 7.85413 7.99961 7.99101 7.99961H7.99998H8.00899C8.14587 7.99961 8.29473 7.97296 8.45547 7.91927C8.61612 7.86598 8.78743 7.78539 8.96885 7.67847C9.15035 7.57123 9.30509 7.47457 9.43309 7.38835C9.56109 7.30207 9.72171 7.18895 9.91522 7.04898C10.1086 6.90897 10.2352 6.81834 10.2947 6.77659C10.8422 6.39572 12.2352 5.42842 14.4732 3.87479C14.9077 3.57135 15.2707 3.20521 15.5624 2.77662C15.8542 2.34821 16 1.89879 16 1.4286C16 1.03569 15.8585 0.699353 15.5758 0.419618C15.293 0.139821 14.9581 0 14.5714 0H1.42851C0.970207 0 0.617512 0.154738 0.370489 0.464213C0.123496 0.773751 0 1.16066 0 1.6249C0 1.99989 0.163744 2.40625 0.491076 2.84373C0.818377 3.28123 1.16669 3.62502 1.53568 3.87498Z" fill="#FCDB50"/>
<path d="M15.107 4.83046C13.1548 6.15177 11.6725 7.17864 10.6607 7.91086C10.3215 8.16077 10.0462 8.35584 9.83485 8.49563C9.62348 8.63552 9.34237 8.77837 8.99111 8.92413C8.63998 9.07012 8.31274 9.14289 8.00912 9.14289H8.00002H7.99104C7.68747 9.14289 7.36005 9.07012 7.00892 8.92413C6.65779 8.77837 6.37649 8.63552 6.16518 8.49563C5.95393 8.35584 5.67861 8.16077 5.33936 7.91086C4.53574 7.32162 3.0566 6.29469 0.901876 4.83046C0.562504 4.60442 0.26191 4.34533 0 4.05371V11.1428C0 11.5359 0.139821 11.872 0.419618 12.1518C0.699353 12.4317 1.03572 12.5715 1.4286 12.5715H14.5715C14.9643 12.5715 15.3006 12.4317 15.5804 12.1518C15.8602 11.8719 16 11.5359 16 11.1428V4.05371C15.744 4.33929 15.4465 4.59839 15.107 4.83046Z" fill="#FCDB50"/>
</svg>

<svg width="16" height="13" fill="none" xmlns="http://www.w3.org/2000/svg"><path d="M1.536 3.875c.202.143.812.567 1.83 1.272 1.018.706 1.798 1.249 2.34 1.63.059.041.185.132.379.272a10.517 10.517 0 00.946.63c.182.106.353.187.514.24.16.054.31.08.446.08h.018a1.4 1.4 0 00.446-.08 2.74 2.74 0 00.514-.24 10.517 10.517 0 00.946-.63l.38-.272c.547-.381 1.94-1.349 4.178-2.902a4.26 4.26 0 001.09-1.098c.291-.429.437-.878.437-1.348 0-.393-.142-.73-.424-1.01A1.38 1.38 0 0014.57 0H1.43C.97 0 .618.155.37.464.123.774 0 1.161 0 1.624c0 .376.164.782.491 1.22.327.437.676.781 1.045 1.031z" fill="#FCDB50"/><path d="M15.107 4.83a185.599 185.599 0 00-4.446 3.08c-.34.25-.615.446-.826.586-.212.14-.493.282-.844.428a2.569 2.569 0 01-.982.219h-.018a2.57 2.57 0 01-.982-.219 5.098 5.098 0 01-.844-.428c-.211-.14-.486-.335-.826-.585-.803-.59-2.282-1.616-4.437-3.08A4.73 4.73 0 010 4.053v7.089c0 .393.14.729.42 1.009.28.28.616.42 1.009.42h13.143c.392 0 .729-.14 1.008-.42.28-.28.42-.616.42-1.01V4.055a4.922 4.922 0 01-.893.776z" fill="#FCDB50"/></svg>
